X:1486
T:I'm Waiting For You
R:reel
N:"collected from J. O'Neill"
B:"O'Neill's Dance Music of Ireland, 1486"
T: taim ag fei.tea.m leatba.
Z:transcribed by John B. Walsh, 8/22/96
M:C|
L:1/8
K:G
D2|G2 dG ((3BAG) dG|AGFG ABcA|BAGF GABc|de=fd cA^FA|
B>G {A}((3GFG) BGAG|FGAB cBcA|BdGB cBAG|FDEF G2||
(Bd)|((3gag) (fd) edBG|FDAD BDAD|E2 (EF) GFGA|((3Bcd) ((3cde) d2 (Bd)|
((3gag) (fd) edBG|((3FED) (AD) BDAD|((3GAG) (FE) DGBd|cDEF G2||


